view/frontend/web/svg/flags/ht.svg

<svg width="24" height="24" viewbox="0 0 20 15" viewBox="0 0 20 15" fill="none" xmlns="http://www.w3.org/2000/svg">
<g clip-path="url(#clip0_270_61031)">
<rect width="20" height="15" fill="white"/>
<path fill-rule="evenodd" clip-rule="evenodd" d="M0 0V15H20V0H0Z" fill="#2E42A5"/>
<mask id="mask0_270_61031" style="mask-type:luminance" maskUnits="userSpaceOnUse" x="0" y="0" width="20" height="15">
<path fill-rule="evenodd" clip-rule="evenodd" d="M0 0V15H20V0H0Z" fill="white"/>
</mask>
<g mask="url(#mask0_270_61031)">
<path fill-rule="evenodd" clip-rule="evenodd" d="M0 7.5V15H20V7.5H0Z" fill="#E31D1C"/>
<rect x="6.25" y="5" width="7.5" height="5" fill="white"/>
<mask id="mask1_270_61031" style="mask-type:luminance" maskUnits="userSpaceOnUse" x="6" y="5" width="8" height="5">
<rect x="6.25" y="5" width="7.5" height="5" fill="white"/>
</mask>
<g mask="url(#mask1_270_61031)">
<path fill-rule="evenodd" clip-rule="evenodd" d="M6.25 9.11111C6.25 9.11111 8.05021 8.63778 10 8.66667C11.9498 8.69556 13.75 9.22223 13.75 9.22223V10H6.25V9.11111Z" fill="#279E19"/>
<path d="M10.046 5.56323C10.046 5.56323 9.4641 5.30112 9.05788 5.30112C8.65167 5.30112 8.42601 5.70119 8.42601 5.70119" stroke="#026A16" stroke-width="0.5"/>
<path d="M10.1753 5.82596C10.1753 5.82596 9.63986 5.63445 9.26607 5.63445C8.89228 5.63445 8.68463 5.92676 8.68463 5.92676" stroke="#026A16" stroke-width="0.5"/>
<path d="M10.1753 6.04819C10.1753 6.04819 9.7792 5.85667 9.50268 5.85667C9.22617 5.85667 9.07256 6.14899 9.07256 6.14899" stroke="#026A16" stroke-width="0.5"/>
<path d="M10.0125 6.2704C10.0125 6.2704 9.76775 6.07889 9.59691 6.07889C9.42608 6.07889 9.33118 6.3712 9.33118 6.3712" stroke="#026A16" stroke-width="0.5"/>
<path d="M9.99152 6.42203C9.99152 6.42203 9.89367 6.30112 9.82537 6.30112C9.75706 6.30112 9.71912 6.48567 9.71912 6.48567" stroke="#026A16" stroke-width="0.5"/>
<path d="M9.954 5.56323C9.954 5.56323 10.5359 5.30112 10.9421 5.30112C11.3483 5.30112 11.574 5.70119 11.574 5.70119" stroke="#026A16" stroke-width="0.5"/>
<path d="M9.82469 5.82596C9.82469 5.82596 10.3601 5.63445 10.7339 5.63445C11.1077 5.63445 11.3154 5.92676 11.3154 5.92676" stroke="#026A16" stroke-width="0.5"/>
<path d="M9.82469 6.04819C9.82469 6.04819 10.2208 5.85667 10.4973 5.85667C10.7738 5.85667 10.9274 6.14899 10.9274 6.14899" stroke="#026A16" stroke-width="0.5"/>
<path d="M9.98753 6.2704C9.98753 6.2704 10.2323 6.07889 10.4031 6.07889C10.5739 6.07889 10.6688 6.3712 10.6688 6.3712" stroke="#026A16" stroke-width="0.5"/>
<path d="M10.0085 6.42203C10.0085 6.42203 10.1063 6.30112 10.1746 6.30112C10.2429 6.30112 10.2809 6.48567 10.2809 6.48567" stroke="#026A16" stroke-width="0.5"/>
<path fill-rule="evenodd" clip-rule="evenodd" d="M9.92974 6.49889C9.92974 6.49889 9.85834 7.33477 9.85834 7.67495C9.85834 8.01514 9.92974 8.74916 9.92974 8.74916H10.1134C10.1134 8.74916 10.1134 7.95895 10.1134 7.67495C10.1134 7.39096 10.0056 6.49889 10.0056 6.49889H9.92974Z" fill="#FECA00"/>
<path fill-rule="evenodd" clip-rule="evenodd" d="M9.20752 7.44905C9.20752 7.44905 8.7549 7.69131 8.7549 8.4085L9.20752 9.27447H10.0243V7.84839L9.20752 7.44905Z" fill="#C51918"/>
<path fill-rule="evenodd" clip-rule="evenodd" d="M8.53684 6.76622C8.53684 6.76622 7.48009 7.07928 7.48009 8.23416L8.84922 8.35096C8.84922 8.35096 8.77443 7.68 9.19575 7.36962L8.53684 6.76622Z" fill="#0A328C"/>
<path d="M8.10057 6.32556L9.91336 7.98685" stroke="#FFD018" stroke-width="0.5"/>
<path d="M7.47096 6.70172L9.99938 8.34358" stroke="#FFD018" stroke-width="0.5"/>
<path d="M7.03572 7.33722L9.88547 8.64052" stroke="#FFD018" stroke-width="0.5"/>
<path fill-rule="evenodd" clip-rule="evenodd" d="M7.48737 8.22513L9.3784 8.43656L9.27194 8.70047H8.97213L9.17632 8.84958L9.63676 8.95734V8.70047H10.04V9.2462H9.17632L8.84506 8.84958C8.84506 8.84958 8.56684 9.12384 8.29531 9.12384C8.02378 9.12384 7.75609 9.03477 7.75609 8.73566C7.75609 8.43656 7.75609 8.52757 7.75609 8.52757L7.48737 8.43656V8.22513Z" fill="#FECA00"/>
<path fill-rule="evenodd" clip-rule="evenodd" d="M10.5339 7.44905C10.5339 7.44905 10.9865 7.69131 10.9865 8.4085L10.5339 9.27447H9.71704V7.84839L10.5339 7.44905Z" fill="#C51918"/>
<path fill-rule="evenodd" clip-rule="evenodd" d="M11.2045 6.76622C11.2045 6.76622 12.2613 7.07928 12.2613 8.23416L10.8922 8.35096C10.8922 8.35096 10.9669 7.68 10.5456 7.36962L11.2045 6.76622Z" fill="#0A328C"/>
<path d="M11.6408 6.32556L9.82801 7.98685" stroke="#FFD018" stroke-width="0.5"/>
<path d="M12.2704 6.70172L9.742 8.34358" stroke="#FFD018" stroke-width="0.5"/>
<path d="M12.7057 7.33722L9.85591 8.64052" stroke="#FFD018" stroke-width="0.5"/>
<path fill-rule="evenodd" clip-rule="evenodd" d="M12.254 8.22513L10.363 8.43656L10.4694 8.70047H10.7692L10.5651 8.84958L10.1046 8.95734V8.70047H9.70137V9.2462H10.5651L10.8963 8.84958C10.8963 8.84958 11.1745 9.12384 11.4461 9.12384C11.7176 9.12384 11.9853 9.03477 11.9853 8.73566C11.9853 8.43656 11.9853 8.52757 11.9853 8.52757L12.254 8.43656V8.22513Z" fill="#FECA00"/>
</g>
</g>
</g>
<defs>
<clipPath id="clip0_270_61031">
<rect width="20" height="15" fill="white"/>
</clipPath>
</defs>
</svg>

<svg width="24" height="24" viewbox="0 0 20 15" fill="none" xmlns="http://www.w3.org/2000/svg">
  <mask id="a" maskUnits="userSpaceOnUse" x="0" y="0" width="20" height="15">
    <path fill="#fff" d="M0 0h20v15H0z"/>
  </mask>
  <g mask="url(#a)">
    <path fill-rule="evenodd" clip-rule="evenodd" d="M0 0v15h20V0H0z" fill="#2E42A5"/>
    <mask id="b" maskUnits="userSpaceOnUse" x="0" y="0" width="20" height="15">
      <path fill-rule="evenodd" clip-rule="evenodd" d="M0 0v15h20V0H0z" fill="#fff"/>
    </mask>
    <g mask="url(#b)">
      <path fill-rule="evenodd" clip-rule="evenodd" d="M0 7.5V15h20V7.5H0z" fill="#E31D1C"/>
      <path fill="#fff" d="M6.25 5h7.5v5h-7.5z"/>
      <mask id="c" maskUnits="userSpaceOnUse" x="6" y="5" width="8" height="5">
        <path fill="#fff" d="M6.25 5h7.5v5h-7.5z"/>
      </mask>
      <g mask="url(#c)">
        <path fill-rule="evenodd" clip-rule="evenodd" d="M6.25 9.111s1.8-.473 3.75-.444c1.95.029 3.75.555 3.75.555V10h-7.5v-.889z" fill="#279E19"/>
        <path d="M10.046 5.563s-.582-.262-.988-.262-.632.4-.632.4" stroke="#026A16" stroke-width=".5"/>
        <path d="M10.175 5.826s-.535-.192-.909-.192-.581.293-.581.293" stroke="#026A16" stroke-width=".5"/>
        <path d="M10.175 6.048s-.396-.191-.672-.191c-.277 0-.43.292-.43.292" stroke="#026A16" stroke-width=".5"/>
        <path d="M10.012 6.27s-.244-.191-.415-.191c-.17 0-.266.292-.266.292" stroke="#026A16" stroke-width=".5"/>
        <path d="M9.992 6.422s-.098-.12-.167-.12c-.068 0-.106.184-.106.184m.235-.923s.582-.262.988-.262.632.4.632.4" stroke="#026A16" stroke-width=".5"/>
        <path d="M9.825 5.826s.535-.192.909-.192.581.293.581.293" stroke="#026A16" stroke-width=".5"/>
        <path d="M9.825 6.048s.396-.191.672-.191c.277 0 .43.292.43.292" stroke="#026A16" stroke-width=".5"/>
        <path d="M9.988 6.27s.244-.191.415-.191c.17 0 .266.292.266.292" stroke="#026A16" stroke-width=".5"/>
        <path d="M10.008 6.422s.098-.12.167-.12c.068 0 .106.184.106.184" stroke="#026A16" stroke-width=".5"/>
        <path fill-rule="evenodd" clip-rule="evenodd" d="M9.93 6.499s-.072.836-.072 1.176c0 .34.072 1.074.072 1.074h.183V7.675c0-.284-.107-1.176-.107-1.176H9.93z" fill="#FECA00"/>
        <path fill-rule="evenodd" clip-rule="evenodd" d="M9.208 7.449s-.453.242-.453.96l.453.865h.816V7.848l-.816-.399z" fill="#C51918"/>
        <path fill-rule="evenodd" clip-rule="evenodd" d="M8.537 6.766S7.48 7.08 7.48 8.234l1.37.117s-.076-.671.346-.981l-.66-.604z" fill="#0A328C"/>
        <path d="M8.1 6.326l1.813 1.66M7.471 6.702l2.528 1.642M7.036 7.337l2.85 1.304" stroke="#FFD018" stroke-width=".5"/>
        <path fill-rule="evenodd" clip-rule="evenodd" d="M7.487 8.225l1.891.212-.106.263h-.3l.204.15.46.107V8.7h.404v.546h-.864l-.33-.396s-.28.274-.55.274c-.272 0-.54-.09-.54-.388v-.208l-.269-.091v-.212z" fill="#FECA00"/>
        <path fill-rule="evenodd" clip-rule="evenodd" d="M10.534 7.449s.452.242.452.96l-.452.865h-.817V7.848l.817-.399z" fill="#C51918"/>
        <path fill-rule="evenodd" clip-rule="evenodd" d="M11.204 6.766s1.057.313 1.057 1.468l-1.369.117s.075-.671-.346-.981l.659-.604z" fill="#0A328C"/>
        <path d="M11.64 6.326l-1.812 1.66m2.442-1.284L9.742 8.344m2.964-1.007l-2.85 1.304" stroke="#FFD018" stroke-width=".5"/>
        <path fill-rule="evenodd" clip-rule="evenodd" d="M12.254 8.225l-1.891.212.106.263h.3l-.204.15-.46.107V8.7H9.7v.546h.864l.331-.396s.278.274.55.274.54-.09.54-.388v-.208l.268-.091v-.212z" fill="#FECA00"/>
      </g>
    </g>
  </g>
</svg>
